modules/themify-icons/icons/layout-cta-right.svg

<?xml version="1.0" encoding="utf-8"?>
<!-- Generated by IcoMoon.io -->
<!DOCTYPE svg PUBLIC "-//W3C//DTD SVG 1.1//EN" "http://www.w3.org/Graphics/SVG/1.1/DTD/svg11.dtd">
<svg version="1.1" xmlns="http://www.w3.org/2000/svg" xmlns:xlink="http://www.w3.org/1999/xlink" width="17" height="17" viewBox="0 0 17 17">
<g>
</g>
	<path d="M0 3v11h17v-11h-17zM16 13h-15v-9h15v9zM14 8h-10v-1h10v1zM9 9h5v2h-5v-2z" fill="#000000" />
</svg>

<svg xmlns="http://www.w3.org/2000/svg" width="17" height="17" viewBox="0 0 17 17"><path d="M0 3v11h17V3H0zm16 10H1V4h15v9zm-2-5H4V7h10v1zM9 9h5v2H9V9z"/></svg>
